azure-patterns/svg-cloud-blue.svg

<svg xmlns="http://www.w3.org/2000/svg" viewBox="0 0 158 90">
                                
                            
<path d="M20.8239,89.9917 L131.0479,89.9917 C145.8319,87.5547 157.1109,74.7227 157.1109,59.2497 C157.1109,42.0377 143.1579,28.0847 125.9469,28.0847 C122.6159,28.0847 119.4109,28.6117 116.4029,29.5787 C110.0929,12.3197 93.5269,-0.0003 74.0829,-0.0003 C50.8289,-0.0003 31.6949,17.6217 29.2949,40.2377 C27.9779,40.0257 26.6359,39.8867 25.2599,39.8867 C11.3089,39.8867 -0.0001,51.1947 -0.0001,65.1447 C-0.0001,77.5797 8.9919,87.8917 20.8239,89.9917" fill="#0078D4"></path>
<path d="M75.1632,56.6841 C70.1102,56.6841 65.9952,52.5651 65.9952,47.5151 C65.9952,42.4651 70.1132,38.3471 75.1632,38.3471 C80.2132,38.3471 84.2792,42.4651 84.2792,47.5151 C84.2792,52.5651 80.2132,56.6841 75.1632,56.6841 Z M102.6722,50.6431 L102.6722,44.1101 L102.3142,43.7801 L95.6302,41.5271 L93.9082,37.0261 L97.2182,30.1631 L97.5832,29.3931 L95.5142,27.3051 L92.9972,24.7791 L92.1222,25.2171 L85.5902,28.5671 L81.0882,27.3051 L78.2382,20.0021 L71.7582,20.0021 L71.4282,20.3331 L69.1752,27.0031 L64.6212,28.7181 L57.0442,25.0741 L52.4302,29.6491 L52.8692,30.5101 L56.2182,37.0361 L54.3522,41.5341 L46.4452,44.3841 L46.4452,50.9171 L47.3802,51.1911 L54.3522,53.4961 L56.2182,57.9981 L52.6472,65.5751 L57.2622,70.2421 L58.1402,69.8021 L64.6732,66.4541 L69.1752,68.3201 L72.0322,76.2301 L78.5652,76.2301 L78.8392,75.2951 L81.1442,68.3231 L85.5932,66.4561 L93.2262,70.0271 L97.8402,65.4131 L97.4012,64.5351 L94.0522,58.0011 L95.3422,53.4441 L102.6722,50.6431 Z" fill="#FFFFFF"></path>
<path d="M124.7775,64.2251 C121.9245,63.6451 120.0755,60.8461 120.6555,57.9961 C121.2355,55.1451 124.0345,53.2931 126.8845,53.8731 C129.7355,54.4541 131.5575,57.2461 130.9775,60.0971 C130.3965,62.9481 127.6285,64.8061 124.7775,64.2251 Z M141.0015,63.9771 L141.7525,60.2881 L141.5885,60.0611 L138.0735,58.0211 L137.6185,55.2831 L140.2765,51.7881 L140.5715,51.3961 L139.6425,49.9791 L138.5125,48.2641 L137.9675,48.4121 L133.8945,49.5511 L131.4995,48.3221 L130.7295,43.8711 L127.0705,43.1261 L126.8465,43.2751 L124.8075,46.7821 L122.0405,47.2261 L118.1815,44.2981 L115.0505,46.3511 L115.2005,46.8871 L116.3405,50.9561 L114.7705,53.2811 L109.9795,53.9811 L109.2285,57.6691 L109.7245,57.9311 L113.3955,60.0351 L113.9315,62.7891 L111.0455,66.6571 L113.1135,69.8221 L113.6595,69.6741 L117.7325,68.5351 L120.0595,70.1061 L120.7625,74.9001 L124.4515,75.6511 L124.7135,75.1551 L126.8165,71.4841 L129.5425,70.9411 L133.4405,73.8341 L136.5765,71.7601 L136.4285,71.2131 L135.2895,67.1401 L136.5415,64.7151 L141.0015,63.9771 Z" fill="#FFFFFF"></path>
<path d="M25.2794,68.4116 C23.6924,66.9296 23.6094,64.4276 25.0914,62.8416 C26.5734,61.2556 29.0754,61.1716 30.6614,62.6536 C32.2474,64.1366 32.3154,66.6226 30.8334,68.2086 C29.3504,69.7946 26.8644,69.8936 25.2794,68.4116 Z M35.6914,74.5906 L37.6094,72.5386 L37.5934,72.3296 L36.1554,69.6596 L36.9364,67.7406 L39.9904,66.5576 L40.3314,66.4226 L40.2934,65.1596 L40.2454,63.6276 L39.8414,63.5086 L36.8064,62.6426 L35.7634,60.9256 L37.0114,57.7956 L34.9774,55.8926 L34.7764,55.8996 L32.1114,57.3336 L30.1774,56.5346 L28.8674,53.1666 L26.0754,53.2496 L25.9614,53.6476 L25.0964,56.6816 L23.1904,57.5456 L19.8714,56.1196 L17.9534,58.1716 L18.1664,58.5316 L19.6794,61.3026 L18.9444,63.2646 L15.5984,64.5956 L15.6774,67.4156 L16.0824,67.5346 L19.1174,68.4006 L19.9834,70.3076 L18.5584,73.6316 L20.6104,75.5486 L20.9704,75.3356 L23.7404,73.8226 L25.6864,74.5426 L27.0344,77.9046 L29.8384,77.8096 L29.9584,77.4046 L30.8244,74.3706 L32.5674,73.3176 L35.6914,74.5906 Z" fill="#FFFFFF"></path>
</svg>

<svg xmlns="http://www.w3.org/2000/svg" viewBox="0 0 158 90"><path d="M20.824 89.992h110.224c14.784-2.437 26.063-15.27 26.063-30.742 0-17.212-13.953-31.165-31.164-31.165-3.331 0-6.536.527-9.544 1.494-6.31-17.26-22.876-29.58-42.32-29.58-23.254 0-42.388 17.623-44.788 40.239-1.317-.212-2.66-.351-4.035-.351C11.309 39.887 0 51.195 0 65.145 0 77.58 8.992 87.892 20.824 89.992" fill="#0078D4"/><path d="M75.163 56.684c-5.053 0-9.168-4.119-9.168-9.169 0-5.05 4.118-9.168 9.168-9.168 5.05 0 9.116 4.118 9.116 9.168 0 5.05-4.066 9.17-9.116 9.17zm27.51-6.04V44.11l-.359-.33-6.684-2.253-1.722-4.5 3.31-6.864.365-.77-2.069-2.088-2.517-2.526-.875.438-6.532 3.35-4.502-1.262-2.85-7.303h-6.48l-.33.331-2.253 6.67-4.554 1.715-7.577-3.644-4.614 4.575.44.861 3.348 6.526-1.866 4.498-7.907 2.85v6.533l.935.274 6.972 2.305 1.866 4.502-3.57 7.577 4.614 4.667.878-.44 6.533-3.348 4.502 1.866 2.857 7.91h6.533l.274-.935 2.305-6.972 4.45-1.867 7.632 3.571 4.614-4.614-.439-.878-3.349-6.534 1.29-4.557 7.33-2.8zM124.778 64.225a5.29 5.29 0 0 1-4.123-6.229 5.293 5.293 0 0 1 6.23-4.123c2.85.581 4.672 3.373 4.092 6.224-.58 2.851-3.349 4.71-6.2 4.128zM141 63.977l.751-3.689-.163-.227-3.516-2.04-.454-2.738 2.657-3.495.295-.392-.928-1.417-1.13-1.715-.546.148-4.073 1.14-2.394-1.23-.77-4.45-3.66-.746-.223.15-2.04 3.506-2.767.444-3.859-2.928-3.13 2.053.15.536 1.14 4.07-1.57 2.324-4.791.7-.752 3.688.497.262 3.67 2.104.537 2.754-2.886 3.868 2.067 3.165.546-.148 4.073-1.139 2.328 1.571.703 4.794 3.688.751.263-.496 2.103-3.67 2.725-.544 3.898 2.893 3.137-2.074-.148-.547-1.14-4.073 1.253-2.425 4.46-.738zM25.28 68.412a3.947 3.947 0 0 1-.189-5.57 3.948 3.948 0 0 1 5.57-.188c1.586 1.483 1.654 3.969.172 5.555-1.483 1.586-3.969 1.685-5.554.203zM35.69 74.59l1.918-2.052-.016-.21-1.438-2.67.781-1.918 3.054-1.183.341-.135-.038-1.263-.048-1.532-.404-.12-3.035-.865-1.043-1.717 1.248-3.13-2.034-1.903-.2.007-2.666 1.434-1.934-.8-1.31-3.367-2.792.083-.114.398-.865 3.034-1.906.864-3.319-1.426-1.918 2.052.213.36 1.513 2.77-.735 1.963-3.346 1.33.08 2.82.404.12 3.035.866.866 1.907-1.425 3.324 2.052 1.917.36-.213 2.77-1.513 1.946.72 1.348 3.362 2.804-.095.12-.405.866-3.034 1.743-1.053 3.124 1.273z" fill="#FFF"/></svg>
